X:490
T: Ich bin der Panneflicker (5-85), S. 137
N: P0760
O: Lothringen
S: Lothringen]
R: Beischlaf?]
M: 2/4
L: 1/16
K: Eb
B,2 | E2E2B,B,B,B, | C2C2B,2
B,2 | B,2B,2C2D2 | E8z2
B,2 | E2E2B,B,B,B, | C2C2B,2
B,2 | B,2B,2C2D2 | E4z2
B,2 | E2F2G4E4 | c2c2B6
G2 | F2BBA2A2A2A2 | C2D2E4z2

